X:0420
T:Casseys Jig.
C:Irish
M:6/8
L:1/8
Q:3/8=108 "Not too fast"
I: :: :: ::
Z:Jack Campin * www.campin.me.uk * 2009
K:G
 c3           B3          | AGA    BGE  | DEG   (G/A/B).G|TAGA  BGE|
 cec          BdB         | AGA    BGE  | DEG    AGA     |TBGG  G3::
 g3           edc         | Bdg    dBG  | g2e    dBG     | ecA  A2d|
 g(e/f/g/).e/ f(d/e/f/).d/| ecg    dBG  | DEG    AGA     | BGG  G3::
(GB).d       (GB).d       |(Gc).e (Gc).e|(GB).d (GB).d   | ecA TA3 |
(GB).d       (GB).d       |(Gc).e (ef).g| DEG   TA>GA    | BGG  G3:|

